packages/ui-icons/svg/Line/gradebook-import.svg

<svg viewBox="0 0 1920 1920" version="1.1" xmlns="http://www.w3.org/2000/svg">
    <path d="M807.18584,686.592055 L1080.05012,959.456333 L0,959.456333 L0,1072.39684 L1080.05012,1072.39684 L807.18584,1345.37406 L886.921842,1425.223 L1296.21826,1016.03953 L886.921842,606.856054 L807.18584,686.592055 Z M1870.41912,434.689537 L1541.19752,105.580885 C1509.68712,74.0704819 1465.97914,56 1421.48058,56 L451.773343,56 L451.773343,786.612173 L564.713855,786.612173 L564.713855,168.940512 L1355.29744,168.940512 L1355.29744,620.702561 L1807.05949,620.702561 L1807.05949,1750.10768 L564.713855,1750.10768 L564.713855,1241.87538 L451.773343,1241.87538 L451.773343,1863.04819 L1920,1863.04819 L1920,554.51942 C1920,509.343216 1902.38128,466.764643 1870.41912,434.689537 L1870.41912,434.689537 Z M1468.23795,192.319198 L1783.6808,507.762048 L1468.23795,507.762048 L1468.23795,192.319198 Z" stroke="none" stroke-width="1" fill-rule="evenodd"/>
</svg>

<svg viewBox="0 0 1920 1920" version="1.1" xmlns="http://www.w3.org/2000/svg">
    <path d="M807.186 686.592l272.864 272.864H0v112.94h1080.05l-272.864 272.978 79.736 79.849 409.296-409.183-409.296-409.184-79.736 79.736zM1870.419 434.69l-329.221-329.11C1509.688 74.07 1465.979 56 1421.48 56H451.773v730.612h112.94V168.941h790.584v451.762h451.762v1129.405H564.714v-508.233h-112.94v621.173H1920V554.52c0-45.176-17.619-87.754-49.58-119.83zm-402.181-242.37l315.443 315.442h-315.443V192.319z" stroke="none" stroke-width="1" fill-rule="evenodd"/>
</svg>
